src/images_karasa_jaga_svg/cmd/sc_symbolshapes.heart.svg

<svg height="16" viewBox="0 0 16 16" width="16" xmlns="http://www.w3.org/2000/svg" xmlns:xlink="http://www.w3.org/1999/xlink"><linearGradient id="a" gradientUnits="userSpaceOnUse" x1="-.049209" x2="128.04921" y1="62.654625" y2="62.654625"><stop offset="0" stop-color="#7c9fcf"/><stop offset=".5" stop-color="#7c9ece"/><stop offset="1" stop-color="#7b9dcf"/></linearGradient><linearGradient id="b" gradientUnits="userSpaceOnUse" x1="64" x2="64" y1="128" y2="0"><stop offset="0" stop-color="#fff"/><stop offset=".59375" stop-color="#fff"/><stop offset=".84375" stop-color="#f1f1f1"/><stop offset=".90625" stop-color="#eaeaea"/><stop offset="1" stop-color="#dfdfdf"/></linearGradient><g fill-rule="evenodd" transform="scale(.125)"><path d="m33.404297 5.5058594c-8.796682-.1151858-17.846685 3.4947248-24.2343751 10.9609376a8.0655581 8.0655581 0 0 0 -.085937.101562c-6.417435 7.757769-9.49367262 17.226647-9.0996099 26.898438.38745836 9.509694 3.8202274 19.13026 9.3671875 28.986328 6.9891345 14.850197 25.0722855 34.746525 50.5468755 46.279295l.740234.33985a8.0655581 8.0655581 0 0 0 6.722656 0l.740234-.33985c25.474835-11.53272 43.557748-31.429107 50.546878-46.279295 5.54695-9.856066 8.97972-19.476634 9.36718-28.986328.39407-9.671791-2.68216-19.140667-9.0996-26.898438a8.0655581 8.0655581 0 0 0 -.0859-.101562c-6.38794-7.4664541-15.43824-11.0762254-24.234417-10.9609376-8.796181.1152878-17.360713 3.5163612-24.775391 9.0214846a8.0655581 8.0655581 0 0 0 -.478515.382812l-5.341797 4.634766-5.341797-4.634766a8.0655581 8.0655581 0 0 0 -.478515-.382812c-7.414279-5.504827-15.978441-8.9062979-24.775391-9.0214846z" fill="url(#a)"/><path d="m33.298007 13.57076c-6.726395-.088077-13.105217 2.418538-17.998555 8.138086-10.5225111 12.720225-9.2661085 28.67545 1.317728 47.253123 5.702023 12.159394 23.129876 31.794211 46.608094 42.423191l.774726.35451.774727-.35451c23.478435-10.62893 40.906033-30.263711 46.608093-42.423191 10.58383-18.577673 11.84024-34.532898 1.31772-47.253123-9.78667-11.439092-25.521479-10.027061-38.073991-.707286l-10.614444 9.208525h-.02421l-10.614444-9.208525c-6.276256-4.659887-13.349052-7.342725-20.075444-7.4308z" fill="url(#b)"/></g></svg>

<?xml version="1.0" encoding="UTF-8" standalone="no"?>
<!-- Created with Inkscape (http://www.inkscape.org/) -->

<svg
   xmlns:dc="http://purl.org/dc/elements/1.1/"
   xmlns:cc="http://creativecommons.org/ns#"
   xmlns:rdf="http://www.w3.org/1999/02/22-rdf-syntax-ns#"
   xmlns:svg="http://www.w3.org/2000/svg"
   xmlns="http://www.w3.org/2000/svg"
   xmlns:xlink="http://www.w3.org/1999/xlink"
   xmlns:sodipodi="http://sodipodi.sourceforge.net/DTD/sodipodi-0.dtd"
   xmlns:inkscape="http://www.inkscape.org/namespaces/inkscape"
   version="1.1"
   id="svg2"
   width="128"
   height="128"
   viewBox="0 0 128 128"
   sodipodi:docname="sc_symbolshapes.heart.svg"
   inkscape:export-filename="/home/rizmut/Dokumen/Rizmut/Github/libreoffice-style-karasa-jaga/build/images_karasa_jaga/cmd/sc_symbolshapes.heart.png"
   inkscape:export-xdpi="12"
   inkscape:export-ydpi="12"
   inkscape:version="0.92.3 (unknown)">
  <metadata
     id="metadata8">
    <rdf:RDF>
      <cc:Work
         rdf:about="">
        <dc:format>image/svg+xml</dc:format>
        <dc:type
           rdf:resource="http://purl.org/dc/dcmitype/StillImage" />
        <dc:title></dc:title>
      </cc:Work>
    </rdf:RDF>
  </metadata>
  <defs
     id="defs6">
    <linearGradient
       id="linearGradient3369">
      <stop
         id="stop3372"
         offset="0"
         style="stop-color:#ffffff;stop-opacity:1;" />
      <stop
         style="stop-color:#ffffff;stop-opacity:1;"
         offset="0.59375"
         id="stop3374" />
      <stop
         style="stop-color:#f1f1f1;stop-opacity:1;"
         offset="0.84375"
         id="stop3376" />
      <stop
         id="stop3378"
         offset="0.90625"
         style="stop-color:#eaeaea;stop-opacity:1;" />
      <stop
         id="stop3384"
         offset="1"
         style="stop-color:#dfdfdf;stop-opacity:1;" />
    </linearGradient>
    <linearGradient
       id="linearGradient7422">
      <stop
         style="stop-color:#7c9fcf;stop-opacity:1"
         offset="0"
         id="stop7424" />
      <stop
         id="stop5348"
         offset="0.5"
         style="stop-color:#7c9ece;stop-opacity:1" />
      <stop
         id="stop7426"
         offset="1"
         style="stop-color:#7b9dcf;stop-opacity:1" />
    </linearGradient>
    <linearGradient
       inkscape:collect="always"
       xlink:href="#linearGradient7422"
       id="linearGradient1510"
       x1="-0.049208894"
       y1="62.654625"
       x2="128.04921"
       y2="62.654625"
       gradientUnits="userSpaceOnUse" />
    <linearGradient
       inkscape:collect="always"
       xlink:href="#linearGradient3369"
       id="linearGradient1518"
       x1="64"
       y1="128"
       x2="64"
       y2="0"
       gradientUnits="userSpaceOnUse" />
  </defs>
  <sodipodi:namedview
     pagecolor="#ffffff"
     bordercolor="#666666"
     borderopacity="1"
     objecttolerance="10"
     gridtolerance="10"
     guidetolerance="10"
     inkscape:pageopacity="0"
     inkscape:pageshadow="2"
     inkscape:window-width="1366"
     inkscape:window-height="706"
     id="namedview4"
     showgrid="true"
     inkscape:snap-page="true"
     inkscape:snap-global="true"
     inkscape:zoom="1.8625617"
     inkscape:cx="47.618033"
     inkscape:cy="62.67229"
     inkscape:window-x="0"
     inkscape:window-y="0"
     inkscape:window-maximized="1"
     inkscape:current-layer="svg2"
     inkscape:snap-smooth-nodes="true"
     showguides="false"
     inkscape:guide-bbox="true">
    <inkscape:grid
       type="xygrid"
       id="grid27"
       spacingx="8"
       spacingy="8"
       empspacing="2" />
    <sodipodi:guide
       position="51.972346,56"
       orientation="0,1"
       id="guide841"
       inkscape:locked="false" />
  </sodipodi:namedview>
  <g
     id="g1541">
    <path
       d="M 33.404297,5.5058594 C 24.607615,5.3906736 15.557612,9.0005842 9.1699219,16.466797 a 8.0655581,8.0655581 0 0 0 -0.085937,0.101562 C 2.6665499,24.326128 -0.40968772,33.795006 -0.015625,43.466797 0.37183336,52.976491 3.8046024,62.597057 9.3515625,72.453125 16.340697,87.303322 34.423848,107.19965 59.898438,118.73242 l 0.740234,0.33985 a 8.0655581,8.0655581 0 0 0 6.722656,0 l 0.740234,-0.33985 C 93.576397,107.1997 111.65931,87.303313 118.64844,72.453125 c 5.54695,-9.856066 8.97972,-19.476634 9.36718,-28.986328 0.39407,-9.671791 -2.68216,-19.140667 -9.0996,-26.898438 a 8.0655581,8.0655581 0 0 0 -0.0859,-0.101562 C 112.44218,9.0003429 103.39188,5.3905716 94.595703,5.5058594 85.799522,5.6211472 77.23499,9.0222206 69.820312,14.527344 a 8.0655581,8.0655581 0 0 0 -0.478515,0.382812 L 64,19.544922 58.658203,14.910156 A 8.0655581,8.0655581 0 0 0 58.179688,14.527344 C 50.765409,9.022517 42.201247,5.6210461 33.404297,5.5058594 Z"
       id="path1500"
       style="fill:url(#linearGradient1510);fill-opacity:1.0;fill-rule:evenodd;stroke:none;stroke-width:3.85527849;stroke-linecap:butt;stroke-linejoin:miter;stroke-miterlimit:4;stroke-dasharray:none;stroke-opacity:0.72941176"
       inkscape:original="M 33.298828 13.570312 C 26.572433 13.482235 20.192166 15.989436 15.298828 21.708984 C 4.776317 34.429209 6.033351 50.385218 16.617188 68.962891 C 22.319211 81.122285 39.746391 100.75579 63.224609 111.38477 L 64 111.74023 L 64.775391 111.38477 C 88.253826 100.75584 105.68075 81.122371 111.38281 68.962891 C 121.96664 50.385218 123.22369 34.429209 112.70117 21.708984 C 102.9145 10.269892 87.179465 11.682178 74.626953 21.001953 L 64.011719 30.210938 L 63.988281 30.210938 L 53.373047 21.001953 C 47.096791 16.342066 40.02522 13.658387 33.298828 13.570312 z "
       inkscape:radius="8.0647516"
       sodipodi:type="inkscape:offset" />
    <path
       style="fill:url(#linearGradient1518);fill-opacity:1;fill-rule:evenodd;stroke:none;stroke-width:3.85527849;stroke-linecap:butt;stroke-linejoin:miter;stroke-miterlimit:4;stroke-dasharray:none;stroke-opacity:0.72941176"
       d="M 33.298007,13.57076 C 26.571612,13.482683 20.19279,15.989298 15.299452,21.708846 4.7769409,34.429071 6.0333435,50.384296 16.61718,68.961969 22.319203,81.121363 39.747056,100.75618 63.225274,111.38516 L 64,111.73967 64.774727,111.38516 C 88.253162,100.75623 105.68076,81.121449 111.38282,68.961969 121.96665,50.384296 123.22306,34.429071 112.70054,21.708846 102.91387,10.269754 87.179061,11.681785 74.626549,21.00156 l -10.614444,9.208525 h -0.02421 L 53.373451,21.00156 C 47.097195,16.341673 40.024399,13.658835 33.298007,13.57076 Z"
       id="path2107"
       inkscape:connector-curvature="0"
       sodipodi:nodetypes="scccccccccccs" />
  </g>
</svg>
